X: 1
T: Barrowburn
M: C|
L: 1/8
R: reel
K: Dmaj
FE |\
"D"D2DE "D7"FAAd | "G"B2BA BcdB | "D"A2AB "Bm"d2de | "G"fedB "A7"AFEF |
"D"D2DE "D7"FAAd | "G"B2BA Bcde | "D"f2af "G"egfe | "A7"dBAB "D"d2 :|
|: cd |\
"A"e2ef "A7/C#"ecBA | "D"f2fg "Bm"fdBA | "Em"g2ga "A/C#"gecA | "F#m"a2ag "B"f2ef |
"Em7"g2ga "A/C#"gecA | "D"a2ag "Bm"f2ef | "G"g2ag "D"f2ed | "A7"BAAB "D"d2 :|
